src/assets/img/puzzleMobile.svg

<svg width="60" height="60" viewBox="0 0 60 60" fill="none" xmlns="http://www.w3.org/2000/svg">
<path d="M24.8829 2C28.5953 2.1 31.6054 5.2 31.6054 8.9V10.7V12.7H33.612H42.1405C43.5452 12.7 44.9498 13.3 45.9532 14.3C46.9565 15.3 47.5585 16.6 47.4582 18V26.5V28.5H49.4649H51.2709C55.0836 28.5 58.194 31.5 58.194 35.2C58.194 39 55.1839 42.1 51.3712 42.1H49.4649H47.4582V44.1V52.6C47.4582 55.6 45.0502 58 42.1405 58H32.107V53.9C32.107 53.1 31.9064 52.2 31.6054 51.5C31.3043 50.7 30.8027 50.1 30.2007 49.5C28.796 48.1 26.7893 47.4 24.7826 47.4H24.6823C22.8763 47.4 21.0702 48.1 19.5652 49.3C18.1605 50.6 17.3579 52.2 17.3579 54.1V58.1H7.52508C6.1204 58.1 4.71572 57.5 3.61204 56.5C2.6087 55.5 2.00669 54.1 2.00669 52.7V42.9H6.1204C7.92642 42.9 9.63211 42.2 10.9365 40.8C11.6388 40.1 12.2408 39.2 12.6421 38.3C13.0435 37.4 13.2441 36.4 13.2441 35.4C13.1438 31.3 9.83278 28 6.02007 28H2.00669V18C2.00669 16.6 2.6087 15.2 3.61204 14.2C4.61538 13.2 6.02007 12.7 7.52508 12.7H16.0535H18.0602V10.7V8.8C18.0602 7.9 18.2609 7 18.5619 6.2C18.9632 5.4 19.4649 4.6 20.0669 4C20.6689 3.4 21.4716 2.9 22.2742 2.5C23.0769 2.2 23.9799 2 24.8829 2ZM24.8829 0C23.7793 0 22.5753 0.2 21.5719 0.6C20.4682 1 19.4649 1.7 18.6622 2.5C17.8595 3.3 17.1572 4.3 16.7559 5.4C16.3545 6.5 16.0535 7.6 16.0535 8.8V10.7H7.52508C5.61873 10.7 3.71237 11.4 2.30769 12.8C0.802675 14.2 0 16.1 0 18V30H6.02007C8.7291 30 11.1371 32.4 11.1371 35.2C11.1371 36 11.0368 36.7 10.7358 37.4C10.4348 38.1 10.0334 38.7 9.53177 39.2C8.62876 40.1 7.42475 40.7 6.1204 40.7H0V52.5C0 54.5 0.802676 56.4 2.20736 57.8C3.61204 59.2 5.51839 60 7.52508 60H19.3645V54C19.3645 52.4 20.1672 51.3 20.8696 50.7C21.9732 49.8 23.2776 49.3 24.6823 49.3H24.7826C26.2876 49.3 27.7926 49.9 28.796 50.9C29.1973 51.3 29.4983 51.8 29.699 52.3C29.8997 52.8 30 53.4 30 53.9V60H41.9398C45.9532 60 49.2642 56.7 49.2642 52.6V44.1H51.1706C55.9866 44.1 60 40.1 60 35.2C60 30.4 55.9866 26.5 51.0702 26.5H49.2642V18C49.2642 14 45.8528 10.7 41.9398 10.7H33.4114V8.9C33.612 4.1 29.699 0.1 24.8829 0Z" fill="#00BEE8"/>
</svg>

<svg width="60" height="60" fill="none" xmlns="http://www.w3.org/2000/svg"><path d="M24.883 2c3.712.1 6.722 3.2 6.722 6.9v3.8h10.536c1.404 0 2.809.6 3.812 1.6 1.003 1 1.605 2.3 1.505 3.7v10.5h3.813c3.813 0 6.923 3 6.923 6.7 0 3.8-3.01 6.9-6.823 6.9H47.458v10.5c0 3-2.408 5.4-5.317 5.4H32.107v-4.1c0-.8-.2-1.7-.502-2.4-.3-.8-.802-1.4-1.404-2-1.405-1.4-3.412-2.1-5.418-2.1h-.1c-1.807 0-3.613.7-5.118 1.9-1.405 1.3-2.207 2.9-2.207 4.8v4H7.525c-1.405 0-2.81-.6-3.913-1.6-1.003-1-1.605-2.4-1.605-3.8v-9.8H6.12c1.806 0 3.512-.7 4.817-2.1.702-.7 1.304-1.6 1.705-2.5.402-.9.602-1.9.602-2.9-.1-4.1-3.411-7.4-7.224-7.4H2.007V18c0-1.4.602-2.8 1.605-3.8 1.003-1 2.408-1.5 3.913-1.5H18.06V8.8c0-.9.2-1.8.502-2.6.401-.8.903-1.6 1.505-2.2.602-.6 1.405-1.1 2.207-1.5.803-.3 1.706-.5 2.609-.5Zm0-2c-1.104 0-2.308.2-3.311.6-1.104.4-2.107 1.1-2.91 1.9-.802.8-1.505 1.8-1.906 2.9-.401 1.1-.703 2.2-.703 3.4v1.9H7.525c-1.906 0-3.813.7-5.217 2.1C.803 14.2 0 16.1 0 18v12h6.02c2.71 0 5.117 2.4 5.117 5.2 0 .8-.1 1.5-.401 2.2-.301.7-.703 1.3-1.204 1.8-.903.9-2.107 1.5-3.412 1.5H0v11.8c0 2 .803 3.9 2.207 5.3A7.53 7.53 0 0 0 7.525 60h11.84v-6c0-1.6.802-2.7 1.505-3.3 1.103-.9 2.408-1.4 3.812-1.4h.1c1.506 0 3.01.6 4.014 1.6.401.4.702.9.903 1.4.2.5.301 1.1.301 1.6V60h11.94c4.013 0 7.324-3.3 7.324-7.4v-8.5h1.907c4.816 0 8.829-4 8.829-8.9 0-4.8-4.013-8.7-8.93-8.7h-1.806V18c0-4-3.411-7.3-7.324-7.3H33.41V8.9C33.612 4.1 29.7.1 24.883 0Z" fill="#00BEE8"/></svg>
